X:1
T:My Times Are in His Hands
T:My Times Are in His Hands
T:Edmund Simon Lorenz
T:Eliza Edmunds Hewitt, 1903
T:Public Domain Courtesy of the Cyber Hymnal™
C:Edmund Simon Lorenz
Z:Public Domain
Z:Courtesy of the Cyber Hymnal™
%%score ( 1 2 ) ( 3 4 )
L:1/8
Q:1/4=100
M:4/4
K:D
V:1 treble 
V:2 treble 
V:3 bass 
V:4 bass 
V:1
 [FA]2 | [Fd]2 [FA]2 [DG]2 [DF]2 | [DF]>[CE] [CE][^B,^D] [CE]2 ([CE][DF]) | %3
w: 1.~My|times are in my|heav’n- ly Fa- ther’s hands, Their *|
w: 2.~My|times are in my|heav’n- ly Fa- ther’s hands, The *|
w: 3.~My|times are in my|heav’n- ly Fa- ther’s hands, Used *|
 [EG]2 [CA]2 [Ec][GB][FA][EG] | [DF]6 [FA]2 | [Fd]2 [FA]2 [DG]2 [DF]2 | %6
w: change- ful scenes I should not|fear; The|rea- son why, He|
w: joy He sends a bless- ing|brings; His|light will spar- kle|
w: for His glo- ry may they|be; Un-|til, in that most|
 [DF]>[DE] [DE][DA] [DB]2 [DB]2 | [DB][DA][Ec][DB] [CA]2 [A,C]2 | [A,D]6 ||"^Refrain" [FA]2 | %10
w: ful- ly un- der- stands, He|will not cause a need- less|tear.||
w: on life’s gold- en sands; I’ll|hide be- neath His shel- tering|wings.|My|
w: beau- ti- ful of lands, I’ll|sing the love that cares for|me.||
 [FA]2 [FB]2 [DF]2 [FB]2 | A6 [FA]2 | [FA]2 [FB]2 [DF][FA][FB][Fd] | c6 [Ge]2 | %14
w: ||||
w: times are in His|hands, What’s|best for me He un- der-|stands. I’ll|
w: ||||
 [Fd]2 [FA]2 [DG]2 [DF]2 | [DF]>[DE] [DE][DG] [DB]2 [DB]2 | [DB][DA][Ec][DB] [CA]2 [A,C]2 | %17
w: |||
w: ev- er trust in|His un- chang- ing love, ’Twill|lead me to my home a-|
w: |||
 [A,D]6 |] %18
w: |
w: bove.|
w: |
V:2
 x2 | x8 | x8 | x8 | x8 | x8 | x8 | x8 | x6 || x2 | x8 | (FFFF F2) x2 | x8 | (GGGG G2) x2 | x8 | %15
 x8 | x8 | x6 |] %18
V:3
 [D,A,]2 | [D,A,]2 [D,D]2 [D,B,]2 [D,A,]2 | [A,,A,]>[A,,G,] [A,,G,][A,,F,] [A,,G,]2 (A,D) | %3
w: ~|~ ~ ~ ~|~ ~ ~ ~ ~ ~ *|
 [A,,C]2 [A,,E,]2 [A,,A,][A,,C][A,,C][A,,A,] | [D,A,]6 [D,A,]2 | [D,A,]2 [D,D]2 [D,B,]2 [D,A,]2 | %6
w: ~ ~ ~ ~ ~ ~|~ ~|~ ~ ~ ~|
 [G,,B,]>[G,,B,] [G,,B,][G,,B,] [G,,G,]2 [G,,G,]2 | %7
w: ~ ~ ~ ~ ~ ~|
 [A,,F,][A,,F,][A,,F,][A,,F,] [A,,E,]2 [A,,G,]2 | [D,F,]6 || [D,D]2 | %10
w: ~ ~ ~ ~ ~ ~|~|~|
 [D,D]2 [D,D]2 [D,A,]2 [D,D]2 | [D,D][D,D][D,D][D,D] [D,D]2 [D,D]2 | %12
w: ~ ~ ~ my|heav’n- ly Fa- ther’s hands, ~|
 [D,D]2 [D,D]2 [D,A,][D,A,][D,A,][D,A,] | [E,A,][E,A,][E,A,][C,A,] [A,,A,]2 [A,,A,]2 | %14
w: ~ ~ ~ ~ ev- er|ful- ly un- der- stands. *|
 [D,A,]2 [D,D]2 [D,B,]2 [D,A,]2 | [F,,B,]>[G,,B,] [G,,B,][G,,B,] [G,,G,]2 [G,,G,]2 | %16
w: ||
 [A,,F,][A,,F,][A,,F,][A,,E,] [A,,E,]2 [A,,G,]2 | [D,F,]6 |] %18
w: ||
V:4
 x2 | x8 | x6 A,,2 | x8 | x8 | x8 | x8 | x8 | x6 || x2 | x8 | x8 | x8 | x8 | x8 | x8 | x8 | x6 |] %18

